X: 6
T: Behind The Haystack
Z: Fernando Durbán Galnares
S: https://thesession.org/tunes/358#setting48977
R: jig
M: 6/8
L: 1/8
K: Dmaj
|:A|"D"d2e fdB|"D"d2e fdB|"A"AFE EFE|"A"AFE EFA|
"G"d2e fdB|"G"d2e fdB|"D"AFD DED|"D"AFD D2:|
|:A|"G"BcB BAF|"D"ABc dcB|"A"AFE EFE|"A"AFE EFA|
"G"BcB BAF|"A"ABc "G"dcB|"D"AFD DED|"D"AFD D2:|
|:f|"G"gbg "D"faf|"A"ede "D"fdB|"A"AFE EFE|"A"AFE E2f|
"G"gbg "D"faf|"A"ede "G"fdB|"D"AFD DED|"D"AFD D2:|

%-------------------- TUNE SEPARATOR --------------------%

